Font-Source/Egyptian2/svg-my/13465.svg

<?xml version="1.0" encoding="UTF-8" standalone="no"?>
<svg
   width="1000"
   height="1000"
   version="1.1"
   id="svg1"
   sodipodi:docname="13465.svg"
   inkscape:version="1.4.2 (f4327f4, 2025-05-13)"
   xmlns:inkscape="http://www.inkscape.org/namespaces/inkscape"
   xmlns:sodipodi="http://sodipodi.sourceforge.net/DTD/sodipodi-0.dtd"
   xmlns="http://www.w3.org/2000/svg"
   xmlns:svg="http://www.w3.org/2000/svg">
  <defs
     id="defs1" />
  <sodipodi:namedview
     id="namedview1"
     pagecolor="#ffffff"
     bordercolor="#666666"
     borderopacity="1.0"
     inkscape:showpageshadow="2"
     inkscape:pageopacity="0.0"
     inkscape:pagecheckerboard="0"
     inkscape:deskcolor="#d1d1d1"
     showguides="true"
     inkscape:zoom="0.53386562"
     inkscape:cx="223.8391"
     inkscape:cy="617.19651"
     inkscape:window-width="1680"
     inkscape:window-height="998"
     inkscape:window-x="-8"
     inkscape:window-y="-8"
     inkscape:window-maximized="1"
     inkscape:current-layer="svg1">
    <sodipodi:guide
       position="0,6.8664551e-07"
       orientation="0,-1"
       id="guide1"
       inkscape:locked="false" />
  </sodipodi:namedview>
  <path
     id="path6"
     style="fill:#000000;stroke:none;stroke-width:0.999999"
     d="M 576.11328,0.09765625 C 523.11676,1.6227367 481.4098,15.852083 454.24023,89.523438 c -2.62813,14.266972 -9.0016,27.647372 -19.13867,40.037112 -10.13706,12.01434 -16.68588,25.2853 -19.68945,39.92773 0,8.25983 5.216,12.60308 15.72851,12.97852 10.51252,0.37564 11.84554,3.91187 3.96094,10.66992 -7.3065,1.62364 -3.75943,8.86594 0,10.11914 -4.88083,5.25624 -4.88083,8.90208 0,10.7793 5.25624,2.25268 7.11138,5.96444 5.60938,11.2207 -1.12634,5.6317 -0.14407,12.52923 2.85937,20.78906 3.00355,8.63528 17.9561,12.97852 44.98828,12.97852 l 34.97852,-5.06055 c -1.5018,5.6317 -0.63097,12.35587 2.74805,20.24023 -67.58043,0.75088 -109.64245,15.46409 -126.16211,43.99805 -56.69248,47.30631 -110.52126,97.42332 -161.58203,150.36133 -10.13706,-21.02503 -33.25398,-49.81798 -69.29688,-86.23633 -35.66745,-36.0429 -56.46941,-62.40959 -62.47656,-79.30469 -12.389757,-36.7938 -38.867755,-71.78486 -79.416018,-104.82421 -9.010725,6.75805 -9.010726,17.65008 0,32.66796 L 2.0546875,271.45312 c -4.8808113,17.64601 -0.1888362,32.42323 14.0781245,44.4375 21.77592,13.14065 44.084074,27.04508 66.986329,41.6875 63.075079,111.88318 109.197559,172.37013 138.482419,181.38086 22.15137,3.37902 57.31779,-16.37677 105.375,-59.17773 59.69605,-52.1871 86.52278,-69.10392 80.51563,-50.70703 0,24.40405 5.04258,45.31733 15.17969,62.58789 8.22701,14.01637 31.31221,104.06686 59.0664,199.08789 -19.88645,-23.13363 -92.55964,-118.96039 -124.29297,-146.62109 -5.5667,-9.11796 -13.15834,-15.37697 -22.43945,-18.69922 -15.46853,-5.53709 -54.65837,9.41589 -64.45703,35.52734 -1.69593,33.42221 -2.5797,63.12854 -2.5293,89.42578 3.05841,68.87865 97.07982,202.52383 92.94531,244.40625 -4.13451,41.88258 -28.77977,33.42868 -58.84765,43.44922 -30.06826,10.01948 -59.29651,18.19965 -87.88477,24.3086 -28.58826,6.10905 -43.66436,12.34091 -44.98828,18.47851 -1.3239,6.13766 1.5965,10.63995 8.68945,13.5293 7.09292,2.88906 22.95552,4.36052 47.62891,4.50976 24.67349,0.14643 48.11372,-1.97789 70.28516,-6.49023 22.17146,-4.51212 41.09986,-2.82671 56.53711,5.28125 48.2991,11.25243 98.43942,-23.23473 64.45703,-68.9668 1.5517,-62.94493 -1.0108,-88.64238 -5.16992,-128.36328 48.46953,62.70039 135.24448,178.01587 177.64062,185.11914 38.31372,6.41929 100.86439,-14.51794 111.42383,-58.51562 16.66151,-55.89336 14.438,-111.52491 4.50976,-168.18164 -22.03566,-107.90993 -11.7397,-261.93069 20.45899,-345.71094 16.78933,21.23777 44.88148,68.41142 88.98633,137.82226 -5.78427,44.10485 -8.68946,109.46493 -8.68946,196.22852 -16.62969,24.58306 -24.96869,55.67786 -24.96875,93.27539 0,37.59758 3.84764,56.2385 11.43946,55.87695 7.59176,-0.36043 13.48015,-15.34211 17.81836,-44.98633 36.15148,0 54.22656,-10.49113 54.22656,-31.45898 0,-20.24484 -4.67882,-44.88548 -14.07813,-73.80664 C 869.9613,668.10022 879.43003,597.68296 878.70703,534.7793 861.349,489.22836 820.03753,415.79451 754.96484,314.57031 722.88563,275.88654 674.36192,272.47918 651.34961,271.45312 c -10.13707,-13.51609 -15.52854,-25.39222 -16.2793,-35.52929 24.40397,-5.6317 44.85732,-18.37866 61.37696,-38.27735 16.89511,-19.89868 25.12351,-52.22611 24.74804,-96.90429 C 720.8199,56.43945 701.52404,27.582493 663.22852,14.066406 634.50683,3.9293407 605.46865,-0.74709978 576.11328,0.09765625 Z M 571.27344,25.945312 c 18.0977,-0.381322 39.39262,2.178845 63.79687,7.810547 38.67116,8.635277 58.14211,33.083044 58.51758,73.255861 0.37732,39.79737 -10.86731,68.82772 -33.76953,87.22461 -22.52681,18.77235 -41.29857,20.10539 -56.31641,3.96094 -6.75804,-6.75805 -8.0904,-12.14938 -3.95898,-16.2793 10.88794,-3.37902 15.92866,-11.89211 15.17773,-25.4082 11.63887,-14.26696 17.49024,-26.38248 17.49024,-36.51954 C 633.60341,85.869071 599.30803,90.727903 586.5625,100.74219 549.76891,76.338139 517.89937,65.555464 490.86719,68.183594 513.33149,28.677441 556.72232,26.2519 571.27344,25.945312 Z m -69.29688,61.158204 c 22.96775,0.703963 47.46117,10.86715 73.36719,30.578124 l -3.95898,11.21875 c 4.50537,2.62814 8.84862,3.43689 12.97851,2.31055 6.00717,-15.76877 12.72936,-23.64842 20.23828,-23.64844 9.01072,-1.12634 13.18057,3.39221 12.42969,13.5293 0,9.38617 -5.15177,19.92754 -15.28906,31.5664 0,26.52824 -20.61457,14.6528 -18.58985,3.85157 -4.50536,16.8951 -0.51102,38.33048 11.88086,64.23632 12.01428,26.28128 21.22486,46.38385 27.60742,60.27539 6.38263,13.89153 16.46783,21.2491 30.35938,22 5.99118,0.32382 19.59722,1.62527 24.80771,3.85498 30.34939,12.98732 25.30985,35.89882 20.73135,72.69971 -46.53425,110.61834 -39.51184,211.91916 -32.77734,337.02344 -2.81512,52.10114 30.00011,86.91261 0.66016,196.7793 0,0 -19.24876,40.25823 -71.16602,34.97851 -51.00701,-5.18686 -205.64861,-244.65429 -211.41211,-250.67773 -26.90486,-28.11836 -58.82309,-61.35146 -76.88672,-115.60352 -5.65841,-16.99439 18.443,-22.87026 28.1582,-20.01953 26.15218,7.67383 58.09535,77.4982 144.64258,161.0332 17.01659,11.95447 46.2457,15.57655 38.71875,-16.7207 -9.81243,-24.81779 -58.79142,-217.51144 -68.19726,-231.09766 -10.13707,-14.64242 -12.97411,-56.41972 -8.46875,-125.50195 -1.87721,-23.65315 17.52791,-35.5293 58.07617,-35.5293 42.05005,0 61.34582,-9.56119 57.9668,-28.70898 l -7.91797,-23.09766 c -4.12993,-14.26698 -5.81144,-23.13074 -5.06055,-26.50976 -8.25983,-2.25268 -19.84932,-1.6173 -34.86719,1.76172 -25.53039,2.25268 -40.59228,1.09521 -45.09765,-3.41016 -4.50536,-4.50536 -6.01161,-10.70545 -4.50977,-18.58984 l 18.03906,-6.16016 c 4.12989,-2.25268 4.93669,-6.07185 2.3086,-11.32812 l -25.40821,-2.20118 c 6.00715,-12.76519 5.30973,-21.27829 -2.19922,-25.4082 -10.13711,0.75089 -15.17968,-1.80144 -15.17968,-7.80859 2.62813,-4.88081 7.84412,-13.91795 15.72851,-27.0586 7.88438,-13.14062 17.44559,-21.54436 28.70899,-25.29882 11.63886,-3.75451 23.05496,-3.23044 34.31836,1.65039 11.26341,4.50536 21.98011,8.03983 32.11718,10.66796 l 2.86133,-6.70898 c -9.38618,-2.25268 -19.12269,-6.07382 -29.25976,-11.33008 -19.52324,-10.137057 -36.44005,-10.137057 -50.70703,0 1.87721,-6.758035 4.43152,-11.798716 7.81054,-15.177732 7.3212,-1.877218 14.78161,-2.65455 22.4375,-2.419922 z"
     sodipodi:nodetypes="sccccccccccccccccccccccccsccsccscssccccccscccccsccscccccccssscccccccccssccccccccsssccccsssccscsccccsccccccscccccccs" />
  <path
     style="fill:#000000;stroke:none;stroke-width:0.999999"
     d="m 500.98745,116.03108 c -9.38617,0 -15.58544,1.5062 -18.58902,4.50975 -2.62814,3.00356 -6.16407,4.50976 -10.66943,4.50976 v 5.05974 l 7.80959,1.09993 c 10.13706,10.13707 26.18155,11.46873 47.95746,3.95977 l 14.07926,3.95976 1.09993,-10.22946 -12.42935,-1.09993 c -12.01428,-6.75799 -21.7495,-10.64298 -29.25844,-11.76932 z"
     id="path12"
     sodipodi:nodetypes="cccccccccc" />
</svg>

<?xml version="1.0" encoding="UTF-8" standalone="no"?>
<svg
   width="1000"
   height="1000"
   version="1.1"
   id="svg1"
   sodipodi:docname="13465.svg"
   inkscape:version="1.4.2 (f4327f4, 2025-05-13)"
   xmlns:inkscape="http://www.inkscape.org/namespaces/inkscape"
   xmlns:sodipodi="http://sodipodi.sourceforge.net/DTD/sodipodi-0.dtd"
   xmlns="http://www.w3.org/2000/svg"
   xmlns:svg="http://www.w3.org/2000/svg">
  <defs
     id="defs1" />
  <sodipodi:namedview
     id="namedview1"
     pagecolor="#ffffff"
     bordercolor="#666666"
     borderopacity="1.0"
     inkscape:showpageshadow="2"
     inkscape:pageopacity="0.0"
     inkscape:pagecheckerboard="0"
     inkscape:deskcolor="#d1d1d1"
     showguides="true"
     inkscape:zoom="0.755"
     inkscape:cx="220.5298"
     inkscape:cy="452.31788"
     inkscape:window-width="1680"
     inkscape:window-height="998"
     inkscape:window-x="-8"
     inkscape:window-y="-8"
     inkscape:window-maximized="1"
     inkscape:current-layer="svg1" />
  <path
     id="path6"
     style="fill:#000000;stroke:none;stroke-width:0.999999"
     d="M 576.11328 0.09765625 C 523.11676 1.6227367 481.4098 15.852082 454.24023 89.523438 C 451.6121 103.79041 445.23863 117.17081 435.10156 129.56055 C 424.9645 141.57489 418.41568 154.84585 415.41211 169.48828 C 415.41211 177.74811 420.62812 182.09136 431.14062 182.4668 C 441.65314 182.84244 442.98616 186.37867 435.10156 193.13672 C 427.79506 194.76036 431.34213 202.00266 435.10156 203.25586 C 430.22073 208.5121 430.22073 212.15794 435.10156 214.03516 C 440.3578 216.28784 442.21294 219.9996 440.71094 225.25586 C 439.5846 230.88756 440.56687 237.78509 443.57031 246.04492 C 446.57386 254.6802 461.52641 259.02344 488.55859 259.02344 L 523.53711 253.96289 C 522.03531 259.59459 522.90614 266.31876 526.28516 274.20312 C 458.70473 274.954 416.64271 289.66721 400.12305 318.20117 C 343.43057 365.50748 289.60179 415.62449 238.54102 468.5625 C 228.41686 447.56423 205.3564 418.87981 169.35938 382.50781 C 133.73732 346.51078 108.94844 318.88052 106.92773 303.91602 C 98.469984 241.28154 83.187007 200.69123 30.806641 164.4043 C 16.445382 154.86161 7.1650757 153.43067 2.9648438 160.11523 C -1.2366138 166.79649 6.478428 180.33694 26.109375 200.73633 C 45.740347 221.1358 57.533324 249.68602 61.490234 286.38672 C 31.774205 266.16815 20.985026 247.05608 18.005859 235.60352 C 15.026685 224.15098 8.642046 221.09463 -1.1484375 226.43555 C 11.353301 270.69836 29.784383 301.20139 54.642578 316.46875 C 68.938058 325.24872 85.785462 357.30242 107.2832 388.51562 C 151.44124 452.63 201.93055 532.90636 221.60156 538.95898 C 243.75293 542.338 278.91935 522.58221 326.97656 479.78125 C 386.67261 427.59415 413.49934 410.67733 407.49219 429.07422 C 407.49219 453.47827 412.53477 474.39155 422.67188 491.66211 C 430.89889 505.67848 453.98409 595.72897 481.73828 690.75 C 461.85183 667.61637 389.17864 571.78961 357.44531 544.12891 C 351.87861 535.01095 344.28697 528.75194 335.00586 525.42969 C 319.53733 519.8926 280.34749 534.84558 270.54883 560.95703 C 268.8529 594.37924 267.96913 624.08557 268.01953 650.38281 C 271.07794 719.26146 365.09935 852.90664 360.96484 894.78906 C 356.83033 936.67164 332.18507 928.21774 302.11719 938.23828 C 272.04893 948.25776 242.82068 956.43793 214.23242 962.54688 C 185.64416 968.65593 170.56806 974.88779 169.24414 981.02539 C 167.92024 987.16305 170.84064 991.66534 177.93359 994.55469 C 185.02651 997.44375 200.88911 998.91521 225.5625 999.06445 C 250.23599 999.21088 273.67622 997.08656 295.84766 992.57422 C 318.01912 988.0621 336.94752 989.74751 352.38477 997.85547 C 400.68387 1009.1079 450.82419 974.62074 416.8418 928.88867 C 418.3935 865.94374 415.831 840.24629 411.67188 800.52539 C 460.14141 863.22578 546.91636 978.54126 589.3125 985.64453 C 627.62622 992.06382 690.17689 971.12659 700.73633 927.12891 C 717.39784 871.23555 715.17433 815.604 705.24609 758.94727 C 683.21043 651.03734 693.50639 497.01658 725.70508 413.23633 C 742.49441 434.4741 770.58656 481.64775 814.69141 551.05859 C 808.90714 595.16344 806.00195 660.52352 806.00195 747.28711 C 789.37226 771.87017 781.03326 802.96497 781.0332 840.5625 C 781.0332 878.16008 784.88084 896.801 792.47266 896.43945 C 800.06442 896.07902 805.95281 881.09734 810.29102 851.45312 C 846.4425 851.45312 864.51758 840.96199 864.51758 819.99414 C 864.51758 799.7493 859.83876 775.10866 850.43945 746.1875 C 869.9613 668.10022 879.43003 597.68296 878.70703 534.7793 C 861.349 489.22836 820.03753 415.79451 754.96484 314.57031 C 722.88563 275.88654 674.36192 272.47919 651.34961 271.45312 C 641.21254 257.93703 635.82107 246.0609 635.07031 235.92383 C 659.47428 230.29213 679.92763 217.54517 696.44727 197.64648 C 713.34238 177.7478 721.57078 145.42037 721.19531 100.74219 C 720.8199 56.439448 701.52404 27.582493 663.22852 14.066406 C 634.50683 3.929341 605.46865 -0.74709978 576.11328 0.09765625 z M 571.27344 25.945312 C 589.37114 25.56399 610.66606 28.124157 635.07031 33.755859 C 673.74147 42.391136 693.21242 66.838902 693.58789 107.01172 C 693.96521 146.80909 682.72058 175.83944 659.81836 194.23633 C 637.29155 213.00868 618.51979 214.34172 603.50195 198.19727 C 596.74391 191.43922 595.41155 186.04789 599.54297 181.91797 C 610.43091 178.53895 615.47163 170.02586 614.7207 156.50977 C 626.35957 142.24281 632.21094 130.12729 632.21094 119.99023 C 633.60341 85.869075 599.30803 90.7279 586.5625 100.74219 C 549.76891 76.338137 517.89937 65.555464 490.86719 68.183594 C 513.33149 28.677441 556.72232 26.251901 571.27344 25.945312 z M 501.97656 87.103516 C 524.94431 87.807479 549.43773 97.970667 575.34375 117.68164 L 571.38477 128.90039 C 575.89014 131.52853 580.23339 132.33728 584.36328 131.21094 C 590.37045 115.44217 597.09264 107.56252 604.60156 107.5625 C 613.61228 106.43616 617.78213 110.95471 617.03125 121.0918 C 617.03125 130.47797 611.87948 141.01934 601.74219 152.6582 C 601.74219 179.18644 581.12762 167.311 583.15234 156.50977 C 578.64698 173.40487 582.64132 194.84025 595.0332 220.74609 C 607.04748 247.02737 616.25806 267.12994 622.64062 281.02148 C 629.02325 294.91301 639.10845 302.27058 653 303.02148 C 658.99118 303.3453 672.5981 304.64724 677.80859 306.87695 C 708.15798 319.86427 703.11756 342.77528 698.53906 379.57617 C 652.00481 490.19451 659.02722 591.49533 665.76172 716.59961 C 662.9466 768.70075 695.76182 803.51222 666.42188 913.37891 C 666.42188 913.37891 647.17312 953.63714 595.25586 948.35742 C 544.24885 943.17056 389.60725 703.70313 383.84375 697.67969 C 356.93889 669.56133 325.02066 636.32823 306.95703 582.07617 C 301.29862 565.08178 325.40003 559.20591 335.11523 562.05664 C 361.26741 569.73047 393.21058 639.55484 479.75781 723.08984 C 496.7744 735.04431 526.00351 738.66639 518.47656 706.36914 C 508.66413 681.55135 459.68514 488.8577 450.2793 475.27148 C 440.14223 460.62906 437.30519 418.85176 441.81055 349.76953 C 439.93334 326.11638 459.33846 314.24023 499.88672 314.24023 C 541.93677 314.24023 561.23254 304.67904 557.85352 285.53125 L 549.93555 262.43359 C 545.80562 248.16661 544.12411 239.30285 544.875 235.92383 C 536.61517 233.67115 525.02568 234.30653 510.00781 237.68555 C 484.47742 239.93823 469.41553 238.78076 464.91016 234.27539 C 460.4048 229.77003 458.89855 223.56994 460.40039 215.68555 L 478.43945 209.52539 C 482.56934 207.27271 483.37614 203.45354 480.74805 198.19727 L 455.33984 195.99609 C 461.34699 183.2309 460.64958 174.7178 453.14062 170.58789 C 443.00351 171.33878 437.96094 168.78645 437.96094 162.7793 C 440.58907 157.89849 445.80506 148.86135 453.68945 135.7207 C 461.57383 122.58008 471.13504 114.17633 482.39844 110.42188 C 494.0373 106.66737 505.4534 107.19144 516.7168 112.07227 C 527.98021 116.57763 538.69691 120.1121 548.83398 122.74023 L 551.69531 116.03125 C 542.30913 113.77857 532.57262 109.95743 522.43555 104.70117 C 502.91231 94.564115 485.9955 94.564115 471.72852 104.70117 C 473.60573 97.943137 476.16004 92.902454 479.53906 89.523438 C 486.86026 87.64622 494.32067 86.868888 501.97656 87.103516 z " />
  <path
     style="fill:#000000;stroke:none;stroke-width:0.999999"
     d="m 500.98745,116.03108 c -9.38617,0 -15.58544,1.5062 -18.58902,4.50975 -2.62814,3.00356 -6.16407,4.50976 -10.66943,4.50976 v 5.05974 l 7.80959,1.09993 c 10.13706,10.13707 26.18155,11.46873 47.95746,3.95977 l 14.07926,3.95976 1.09993,-10.22946 -12.42935,-1.09993 c -12.01428,-6.75799 -21.7495,-10.64298 -29.25844,-11.76932 z"
     id="path12"
     sodipodi:nodetypes="cccccccccc" />
</svg>
